X:518
M:C
L:1/8
K:F
c>FA>f A<F~F:|
f|c<A f>A c>f A<f|c>f A<a g>G B<d|c<A f>A c>fA>f|c>FA>f A<F F>f|
c<A f>A (3ccf (3Aaf|(3ccf (3Aaa g>G B<b|(3agf (3efg (3fcB (3ABd|
(3cAF DFB A<F~F||

